dist/assets/uwm-icons/icon_pdf.svg

<?xml version="1.0" encoding="UTF-8"?>
<svg width="24px" height="24px" viewBox="0 0 24 24" version="1.1" xmlns="http://www.w3.org/2000/svg" xmlns:xlink="http://www.w3.org/1999/xlink">
    <!-- Generator: Sketch 48.2 (47327) - http://www.bohemiancoding.com/sketch -->
    <title>icon_pdf</title>
    <desc>Created with Sketch.</desc>
    <defs></defs>
    <g id="Icons" stroke="none" stroke-width="1" fill="none" fill-rule="evenodd">
        <g id="icon_pdf">
            <rect id="Rectangle" fill="#FFFFFF" x="0" y="0" width="24" height="24"></rect>
            <path d="M17.0736177,20.3006335 L6.92669028,20.3006335 C6.24041275,20.3006335 5.68227322,19.7282523 5.68227322,19.0241476 L5.68227322,18.3803766 C5.95241029,18.7120545 6.3525335,18.9287507 6.80286462,18.9287507 C7.19590328,18.9287507 7.57477283,18.77839 7.84860619,18.4912518 C7.85815494,18.4839865 7.86708763,18.4760894 7.87632835,18.4678764 C8.41290621,17.8105224 9.04589558,16.6180615 9.60988757,15.5282628 C10.9094409,15.00358 12.2718312,14.4703684 13.5861697,14.1500623 C14.5456646,14.9432462 15.9342369,15.4669814 17.07639,15.4669814 C17.5987987,15.4669814 18.0574465,15.1788955 18.3180348,14.7524525 L18.3180348,19.0241476 C18.3180348,19.7282523 17.7598953,20.3006335 17.0736177,20.3006335 M8.31649469,16.0551568 C7.90374249,16.8104347 7.49345449,17.515803 7.20668412,17.8705403 C7.10842446,17.966569 6.97813029,18.0256392 6.80286462,18.0256392 C6.47358694,18.0256392 6.21577083,17.7615605 6.21577083,17.4238808 C6.21577083,17.2646754 6.28168797,17.1067336 6.37193901,17.005019 C6.71600185,16.7317797 7.46511628,16.4042083 8.31649469,16.0551568 M11.1370707,9.0659144 C10.7720622,8.19597073 10.4720468,7.36109015 10.4720468,6.88789639 C10.4720468,6.55021673 10.7295549,6.28582209 11.0591406,6.28582209 C11.3884183,6.28582209 11.6462344,6.55021673 11.6462344,6.88789639 C11.6462344,7.33992594 11.410288,8.17164768 11.1370707,9.0659144 M11.3114123,11.4363056 C11.7528107,12.1562045 12.269675,12.8261938 12.8339751,13.4210028 C11.9634992,13.6651808 11.1136609,13.9775898 10.2749114,14.3054771 C10.679963,13.3676184 11.0043123,12.3943808 11.3114123,11.4363056 M17.6634838,13.9621115 C17.6634838,14.2997912 17.4059757,14.5638699 17.07639,14.5638699 C16.4150624,14.5638699 15.4752811,14.2577786 14.7237024,13.830388 C15.5861697,13.5802081 16.5274911,13.3597213 17.07639,13.3597213 C17.4059757,13.3597213 17.6634838,13.624116 17.6634838,13.9621115 M6.92669028,3.69968236 L14.1563222,3.69968236 C14.2123826,3.69968236 14.2672108,3.71105417 14.3223471,3.71705596 L14.3223471,5.75008336 C14.3223471,6.83988207 15.1869706,7.72593581 16.2490374,7.72593581 L18.2887725,7.72593581 C18.307254,7.82765035 18.3180348,7.93094432 18.3180348,8.03613358 L18.3180348,13.1714546 C18.0574465,12.7450117 17.5987987,12.4569257 17.07639,12.4569257 C16.1603265,12.4569257 14.8290467,12.7920783 13.8110273,13.1436569 C12.9858309,12.3492094 12.2277838,11.3573346 11.6828893,10.3029149 C12.0722316,9.07286384 12.5265671,7.842181 12.5265671,6.88789639 C12.5265671,6.06217644 11.8646234,5.38271063 11.0591406,5.38271063 C10.2536578,5.38271063 9.59140613,6.06217644 9.59140613,6.88789639 C9.59140613,7.91483425 10.1476975,9.18910903 10.7335592,10.3872558 C10.2758355,11.8573785 9.75589096,13.4323746 9.09148314,14.7616131 C7.73155706,15.3087237 6.51855845,15.7155818 5.78915755,16.3186038 C5.77806869,16.3302915 5.76728785,16.3429268 5.75743108,16.356194 C5.72909287,16.3852553 5.70783921,16.4203183 5.68227322,16.4515908 L5.68227322,4.97616833 C5.68227322,4.2720636 6.24041275,3.69968236 6.92669028,3.69968236 M18.3383644,6.36700419 L15.8270445,3.72305775 C15.3902664,3.26344699 14.781611,3 14.1563222,3 L6.92669028,3 C5.86431542,3 5,3.8866855 5,4.97616833 L5,19.0241476 C5,20.1136304 5.86431542,21 6.92669028,21 L17.0736177,21 C18.1356846,21 19,20.1136304 19,19.0241476 L19,8.03613358 C19,7.4084727 18.7649777,6.81555903 18.3383644,6.36700419" id="Fill-95" fill="#000000"></path>
        </g>
    </g>
</svg>

<svg width="24" height="24" xmlns="http://www.w3.org/2000/svg"><g fill="none" fill-rule="evenodd"><path fill="#FFF" d="M0 0h24v24H0z"/><path d="M17.074 20.3H6.927c-.687 0-1.245-.572-1.245-1.276v-.644a1.445 1.445 0 0 0 2.167.111.475.475 0 0 0 .027-.023c.537-.657 1.17-1.85 1.734-2.94 1.3-.524 2.662-1.058 3.976-1.378.96.793 2.348 1.317 3.49 1.317a1.46 1.46 0 0 0 1.242-.715v4.272c0 .704-.558 1.277-1.244 1.277m-8.758-4.246c-.412.755-.823 1.46-1.11 1.816a.552.552 0 0 1-.403.155.588.588 0 0 1-.587-.602c0-.16.066-.317.156-.419.344-.273 1.093-.6 1.944-.95m2.821-6.99c-.365-.869-.665-1.704-.665-2.177 0-.338.258-.602.587-.602.33 0 .587.264.587.602 0 .452-.236 1.284-.509 2.178m.174 2.37c.442.72.959 1.39 1.523 1.985-.87.244-1.72.557-2.56.884.406-.937.73-1.91 1.037-2.869m6.352 2.526a.588.588 0 0 1-.587.602c-.66 0-1.6-.306-2.352-.734.862-.25 1.803-.47 2.352-.47.33 0 .587.264.587.602M6.927 3.7h7.23c.055 0 .11.011.165.017V5.75c0 1.09.865 1.976 1.927 1.976h2.04c.018.102.029.205.029.31v5.135a1.461 1.461 0 0 0-1.242-.714c-.916 0-2.247.335-3.265.687a11.116 11.116 0 0 1-2.128-2.841c.39-1.23.844-2.46.844-3.415 0-.826-.662-1.505-1.468-1.505-.805 0-1.468.68-1.468 1.505 0 1.027.557 2.301 1.143 3.5-.458 1.47-.978 3.044-1.643 4.374-1.36.547-2.572.954-3.302 1.557a.412.412 0 0 0-.032.037c-.028.03-.05.064-.075.096V4.976c0-.704.558-1.276 1.245-1.276m11.411 2.667l-2.511-2.644A2.317 2.317 0 0 0 14.157 3h-7.23C5.864 3 5 3.887 5 4.976v14.048C5 20.114 5.864 21 6.927 21h10.147C18.136 21 19 20.114 19 19.024V8.036a2.41 2.41 0 0 0-.662-1.669" fill="#000"/></g></svg>
